X: 6
T: Coleman's
Z: GoPlayer
S: https://thesession.org/tunes/409#setting47907
R: slip jig
M: 9/8
L: 1/8
K: Amix
M:3/4
dg eA -A2|ED EA -AB|cd eA -A2|ED EG- GF|
GB eA -A2|ED EA -AB|cd eA -A2|ED EG- GF||
GB ea -ag|ag ea -a2|ge dg -gf|g2 ag ge|
dg ea -ag|ag ea -a2|ge dg -gf|g2 ag ge||

